X:1
T: Miss Katherine Stewart Forbes of Achmedden's Strathspey
C:William Marshall
R:Strathspey
Q: 128
K:F
M:4/4
L:1/16
|:A2|FF3 F3A G3A B3d|FF3 F3A ((3c2d2e2) f2c2|d2f2 A2f2 G3A Bd3|c3f efge f4 f2A2|
FF3 F3A G3A B3d|FF3 F3A ((3c2d2e2) f2c2|d2f2 A2f2 G3A Bd3|c3f efge f4 f2a2|
cf3 Af3 G2g2 g2a2|cf3 Af3 cf3 Af3|Bg3 Af3 G3A B2d2|c3f efge f4 f2a2|
cf3 Af3 G2g2 g2a2|cf3 Af3 cf3 Af3|B3d c2A2 G2A2 B2d2|c3f efge f4 f2:|
